X:9063
T:La Rotta
C:anonymous
H:XIV eme siecle
M:2/4
L:1/8
Q:1/4=100
K:C
A/B/cB/c/A|dd/c/B/c/A|A/G/G/F/E/F/D/E/|F/D/EzE|A/B/cB/c/A|
dd/c/B/c/A|A/G/G/F/F/E/E/D/| \
D/C/Dz2|A/B/cB/c/A|dd/c/B/c/A|
A/G/G/F/F/E/E/D/|C/D/Ez2|A/B/cB/c/A|dd/c/B/c/A|A/G/G/F/F/E/E/D/| \
D/C/Dz2|D/E/FF/G/A|A/B/cB/c/A|A/G/G/F/F/E/E/D/|C/D/EzD/E/|FF/G/AA/B/|
cB/c/AA/G/|G/F/F/E/E/D/D/C/| \
D4| \
